X:1
T:Mississippi Waltz
L:1/8
Q:240
M:3/4
K:F
z2 aa zg | f2 zc (3dfd | c2 zd cB | _A4 (3GAG | F2 zD ag | f2 zc (3dfd |
c2 zd (3GFG |
F4 zG | F4 ag | f2 zc (3dfd | c2 zd cB | _A4 (3GAG | F2 zC DF | A2 zc (3AGF | _A2 _zG (3FGD |
F4 zG | F4 zF | [c4_A4] (3AGF | [c4_A4] (3AGF | [c4A4] zd | [c2A2] zG (3FGF | [c4_A4] (3AGF | [c2_A2] _z3[BG] | [BG][d4B4]z | [d4B4] ag | f2 zc (3dfd | c2 zd cB | _A4 (3GAG |
F2 zC DF | A2 zc (3AGF | _A2 _zG (3FGD | F4 zG | F6 | K:C

